X:1730
T:Bonnie Dundee
% Nottingham Music Database
S:Joy Foxley
M:3/4
L:1/4
K:F
A/2B/2|"F"c3/2d/2c|"F"c3/2d/2c|"Bb"fed|"F"c2"C7"B|"F"A/2c3/2F|"F"A/2c3/2F|\
"Gm"G3/2A/2G|"C7"GAB|
"F"c3/2d/2c|"F"c3/2d/2c|"Bb"fed|"F"c2"C7"B|"F/c"A/2c3/2F|"C7"G/2c3/2C|\
"F"F3/2G/2"Bb"F|"F"F2C||
"F"F3/2F/2F|"F"FBA|"C7"GCC|"C7"C2C|"C7"G3/2G/2G|F"C7"GAB|"F"BAA|"F"A2F/2G/2|
"F"A3/2G/2A|"C7/g"B3/2A/2B|"F/a"c3/2B/2c|"Bb"dcB|"F/c"A/2c3/2F|"C7"G/2c3/2C|\
"F"F3/2G/2"Bb"F|"F"F2||
